src/icons/azure-log-analytics.svg

<?xml version="1.0" encoding="UTF-8"?>
<svg xmlns="http://www.w3.org/2000/svg" xmlns:xlink="http://www.w3.org/1999/xlink" width="32" height="32" viewBox="0 0 32 32" version="1.1">
<defs>
<linearGradient id="linear0" gradientUnits="userSpaceOnUse" x1="5.23" y1="17.450001" x2="5.23" y2="8.09" gradientTransform="matrix(1.81715,0,0,1.81715,-0.29,-0.29)">
<stop offset="0" style="stop-color:rgb(9.803922%,53.333336%,85.09804%);stop-opacity:1;"/>
<stop offset="0.9" style="stop-color:rgb(32.941177%,68.235296%,94.117647%);stop-opacity:1;"/>
</linearGradient>
<linearGradient id="linear1" gradientUnits="userSpaceOnUse" x1="11.5" y1="12.45" x2="11.5" y2="0.55" gradientTransform="matrix(1.81715,0,0,1.81715,-0.29,-0.29)">
<stop offset="0" style="stop-color:rgb(9.803922%,54.11765%,70.19608%);stop-opacity:1;"/>
<stop offset="0.01" style="stop-color:rgb(9.803922%,54.509807%,70.588237%);stop-opacity:1;"/>
<stop offset="0.44" style="stop-color:rgb(15.294118%,69.803923%,84.313726%);stop-opacity:1;"/>
<stop offset="0.79" style="stop-color:rgb(18.431373%,79.607844%,92.941177%);stop-opacity:1;"/>
<stop offset="1" style="stop-color:rgb(19.607843%,83.137256%,96.078432%);stop-opacity:1;"/>
</linearGradient>
</defs>
<g id="surface1">
<path style=" stroke:none;fill-rule:nonzero;fill:url(#linear0);" d="M 9.867188 23.570312 L 17.71875 23.570312 L 17.71875 31.417969 L 9.867188 31.417969 Z M 1.800781 31.417969 L 8.558594 31.417969 L 8.558594 23.570312 L 0.707031 23.570312 L 0.707031 30.328125 C 0.707031 30.929688 1.195312 31.417969 1.800781 31.417969 M 0.707031 22.332031 L 8.558594 22.332031 L 8.558594 14.410156 L 0.707031 14.410156 Z M 0.707031 22.332031 "/>
<path style=" stroke:none;fill-rule:evenodd;fill:url(#linear1);" d="M 20.605469 0.707031 C 23.496094 0.679688 26.28125 1.820312 28.316406 3.875 C 30.351562 5.929688 31.472656 8.71875 31.417969 11.613281 C 31.445312 14.488281 30.316406 17.253906 28.285156 19.289062 C 26.25 21.324219 23.480469 22.453125 20.605469 22.421875 L 9.792969 22.421875 L 9.792969 11.519531 C 9.765625 8.644531 10.894531 5.878906 12.929688 3.84375 C 14.960938 1.808594 17.730469 0.679688 20.605469 0.707031 M 20.605469 0.707031 "/>
<path style=" stroke:none;fill-rule:nonzero;fill:rgb(100%,100%,100%);fill-opacity:1;" d="M 13.5 9.976562 L 15.972656 9.976562 L 15.972656 17.390625 L 13.5 17.390625 Z M 18.445312 12.449219 L 20.914062 12.449219 L 20.914062 17.390625 L 18.445312 17.390625 Z M 23.386719 7.503906 L 25.859375 7.503906 L 25.859375 17.390625 L 23.386719 17.390625 Z M 23.386719 7.503906 "/>
</g>
</svg>

<svg role="img" viewBox="0 0 32 32" xmlns="http://www.w3.org/2000/svg" xmlns:xlink="http://www.w3.org/1999/xlink"><defs><linearGradient gradientTransform="translate(-.29 -.29)scale(1.81715)" gradientUnits="userSpaceOnUse" id="a" x1="5.23" x2="5.23" y1="17.45" y2="8.09"><stop offset="0" style="stop-color:rgb(9.803922%,53.333336%,85.09804%);stop-opacity:1"/><stop offset=".9" style="stop-color:rgb(32.941177%,68.235296%,94.117647%);stop-opacity:1"/></linearGradient><linearGradient gradientTransform="translate(-.29 -.29)scale(1.81715)" gradientUnits="userSpaceOnUse" id="b" x1="11.5" x2="11.5" y1="12.45" y2=".55"><stop offset="0" style="stop-color:rgb(9.803922%,54.11765%,70.19608%);stop-opacity:1"/><stop offset=".01" style="stop-color:rgb(9.803922%,54.509807%,70.588237%);stop-opacity:1"/><stop offset=".44" style="stop-color:rgb(15.294118%,69.803923%,84.313726%);stop-opacity:1"/><stop offset=".79" style="stop-color:rgb(18.431373%,79.607844%,92.941177%);stop-opacity:1"/><stop offset="1" style="stop-color:rgb(19.607843%,83.137256%,96.078432%);stop-opacity:1"/></linearGradient></defs><path d="M9.867 23.57h7.852v7.848H9.867Zm-8.066 7.848h6.758V23.57H.707v6.758c0 .602.488 1.09 1.094 1.09M.707 22.332h7.852V14.41H.707Zm0 0" style="stroke:none;fill-rule:nonzero;fill:url(#a)"/><path d="M20.605.707a10.707 10.707 0 0 1 10.813 10.906 10.706 10.706 0 0 1-3.133 7.676 10.692 10.692 0 0 1-7.68 3.133H9.793V11.52A10.71 10.71 0 0 1 20.605.707m0 0" style="stroke:none;fill-rule:evenodd;fill:url(#b)"/><path d="M13.5 9.977h2.473v7.414H13.5Zm4.945 2.472h2.47v4.942h-2.47Zm4.942-4.945h2.472v9.887h-2.472Zm0 0" style="stroke:none;fill-rule:nonzero;fill:rgb(100%,100%,100%);fill-opacity:1"/></svg>
